build/svg/cmd/32/extrusionsurfacefloater.svg

<?xml version="1.0" encoding="UTF-8" standalone="no"?>
<svg
   xmlns:dc="http://purl.org/dc/elements/1.1/"
   xmlns:cc="http://creativecommons.org/ns#"
   xmlns:rdf="http://www.w3.org/1999/02/22-rdf-syntax-ns#"
   xmlns:svg="http://www.w3.org/2000/svg"
   xmlns="http://www.w3.org/2000/svg"
   xmlns:sodipodi="http://sodipodi.sourceforge.net/DTD/sodipodi-0.dtd"
   xmlns:inkscape="http://www.inkscape.org/namespaces/inkscape"
   viewBox="0 0 32 32"
   version="1.1"
   id="svg6"
   sodipodi:docname="extrusionsurfacefloater.svg"
   inkscape:export-filename="/home/jupiter007/Libreoffice yaru theme fullcolor/build/cmd/32/extrusionsurfacefloater.png"
   inkscape:export-xdpi="95"
   inkscape:export-ydpi="95"
   inkscape:version="0.92.5 (2060ec1f9f, 2020-04-08)">
  <metadata
     id="metadata12">
    <rdf:RDF>
      <cc:Work
         rdf:about="">
        <dc:format>image/svg+xml</dc:format>
        <dc:type
           rdf:resource="http://purl.org/dc/dcmitype/StillImage" />
      </cc:Work>
    </rdf:RDF>
  </metadata>
  <defs
     id="defs10" />
  <sodipodi:namedview
     pagecolor="#ffffff"
     bordercolor="#666666"
     borderopacity="1"
     objecttolerance="10"
     gridtolerance="10"
     guidetolerance="10"
     inkscape:pageopacity="0"
     inkscape:pageshadow="2"
     inkscape:window-width="1920"
     inkscape:window-height="1011"
     id="namedview8"
     showgrid="false"
     inkscape:zoom="10.429825"
     inkscape:cx="7.2555067"
     inkscape:cy="17.350287"
     inkscape:window-x="0"
     inkscape:window-y="32"
     inkscape:window-maximized="1"
     inkscape:current-layer="svg6" />
  <path
     d="m9 4-5 5v19h19l5-5v-19z"
     fill="#b3b3b3"
     id="path2"
     style="fill:#cae795;fill-opacity:1" />
  <path
     d="m8.6464844 4-4.6464844 4.6464844v.3535156 1 17 1h19l4.292969-4.292969.707031-.707031v-1-18h-1-17-.6464844-.3535156zm1.3535156 1h16.292969l-4 4h-.292969-12zm-1 .0605469v3.9394531h-3.9394531zm18 .6464843v16.2929688h-4v-12.2929688zm-22 4.2929688h4v12 .292969l-4 4zm5 0h12v12h-12zm-.2929688 13h12.2929688v4h-16.2929688zm13.2929688 0h3.585938l-3.585938 3.585938z"
     fill="#232629"
     id="path4"
     style="fill:#46a926;fill-opacity:1" />
</svg>

<svg xmlns="http://www.w3.org/2000/svg" viewBox="0 0 32 32"><path d="M9 4L4 9v19h19l5-5V4z" fill="#cae795"/><path d="M8.646 4L4 8.646V28h19l4.293-4.293L28 23V4H9zM10 5h16.293l-4 4H10zm-1 .06V9H5.06zm18 .647V22h-4V9.707zM5 10h4v12.293l-4 4zm5 0h12v12H10zm-.293 13H22v4H5.707zM23 23h3.586L23 26.586z" fill="#46a926"/></svg>
